Obsidian-SemiLight/actions/16s/containment.svg

<svg viewBox="0 0 16 16" xmlns="http://www.w3.org/2000/svg"><g fill="#4d4d4d"><path d="m7 2v5.0410156a3.5 3.5 0 0 0 -2.9960938 3.4589844 3.5 3.5 0 0 0 3.5 3.5 3.5 3.5 0 0 0 3.4999998-3.5 3.5 3.5 0 0 0 -3.003906-3.4609375v-5.0390625zm.5039062 6a2.5 2.5 0 0 1 2.4999998 2.5 2.5 2.5 0 0 1 -2.4999998 2.5 2.5 2.5 0 0 1 -2.5-2.5 2.5 2.5 0 0 1 2.5-2.5z"/><path d="m10 10.5a2.5 2.5 0 0 1 -2.5 2.5 2.5 2.5 0 0 1 -2.5-2.5 2.5 2.5 0 0 1 2.5-2.5 2.5 2.5 0 0 1 2.5 2.5z" fill-opacity=".5"/></g></svg>

<svg xmlns="http://www.w3.org/2000/svg" viewBox="0 0 16 16">
  <defs id="defs3051">
    <style type="text/css" id="current-color-scheme">
      .ColorScheme-Text {
        color:#4d4d4d;
      }
      </style>
  </defs>
 <path style="fill:currentColor;fill-opacity:1;stroke:none" 
     d="M 7 2 L 7 7.0410156 A 3.5 3.5 0 0 0 4.0039062 10.5 A 3.5 3.5 0 0 0 7.5039062 14 A 3.5 3.5 0 0 0 11.003906 10.5 A 3.5 3.5 0 0 0 8 7.0390625 L 8 2 L 7 2 z M 7.5039062 8 A 2.5 2.5 0 0 1 10.003906 10.5 A 2.5 2.5 0 0 1 7.5039062 13 A 2.5 2.5 0 0 1 5.0039062 10.5 A 2.5 2.5 0 0 1 7.5039062 8 z "
     class="ColorScheme-Text"
     />
 <path style="fill:currentColor;fill-opacity:0.5;stroke:none" 
     d="M 10,10.5 A 2.5,2.5 0 0 1 7.5,13 2.5,2.5 0 0 1 5,10.5 2.5,2.5 0 0 1 7.5,8 2.5,2.5 0 0 1 10,10.5 Z"
     class="ColorScheme-Text"
     />
</svg>
